;FLAVOR:Marlin
;TIME:22086
;Filament used: 27.7196m
;Layer height: 0.2
;MINX:10.722
;MINY:13.845
;MINZ:0.2
;MAXX:224.278
;MAXY:221.146
;MAXZ:4
;TARGET_MACHINE.NAME:ELEGOO NEPTUNE 2S
;Generated with Cura_SteamEngine 5.7.0
M140 S70
M105
M190 S70
M104 S210
M105
M109 S210
M82 ;absolute extrusion mode
;ELEGOO NEPTUNE 2S
G90
G28 ;home
G1 Z0.6 F100 ;Move Z Axis up
G92 E0 ;Reset Extruder
G1 X1.5 Y20 F5000.0 ;Move to start position
G1 Y120.0 F600.0 E20 ;Draw the first line
G1 X0.5 F1000.0 ;Move to side a little
G1 Y20 F600.0 E40 ;Draw the second line
G92 E0 ;Reset Extruder
G92 E0
G92 E0
G1 F1500 E-5
;LAYER_COUNT:20
;LAYER:0
M107
M204 S500
G0 F4800 X25.891 Y33.756 Z0.2
;TYPE:SKIRT
G1 F1500 E0
G1 F1800 X36.967 Y22.684 E0.71101
G1 X37.772 Y22.01 E0.75868
G1 X39.395 Y20.987 E0.84578
G1 X41.105 Y20.348 E0.92865
G1 X42.419 Y20.033 E0.99
G1 X44.182 Y19.945 E1.07014
G1 X45.626 Y20.048 E1.13586
G1 X47.37 Y20.525 E1.21795
G1 X48.693 Y21.064 E1.28281
G1 X50.29 Y22.126 E1.36988
G1 X51.234 Y22.947 E1.42668
G1 X55.629 Y27.338 E1.70873
G1 X63.577 Y22.197 E2.13848
G1 X71.265 Y18.106 E2.53386
G1 X72.056 Y17.734 E2.57354
G1 X79.634 Y14.517 E2.9473
G1 X80.953 Y14.026 E3.0112
G1 X82.042 Y13.845 E3.06132
G1 X152.933 Y13.845 E6.27977
G1 X154.202 Y14.073 E6.33831
G1 X163.155 Y17.833 E6.77917
G1 X163.964 Y18.221 E6.8199
G1 X171.42 Y22.195 E7.20348
G1 X179.374 Y27.341 E7.63358
G1 X183.99 Y22.737 E7.92957
G1 X185.096 Y21.801 E7.99535
G1 X186.71 Y20.87 E8.07994
G1 X188.367 Y20.272 E8.15992
G1 X190.167 Y19.954 E8.2429
G1 X191.99 Y19.96 E8.32567
G1 X193.745 Y20.282 E8.40668
G1 X195.378 Y20.871 E8.48549
G1 X196.986 Y21.801 E8.56982
G1 X198.115 Y22.761 E8.6371
G1 X209.233 Y33.896 E9.35149
G1 X210.092 Y34.974 E9.41407
G1 X210.831 Y36.162 E9.47758
G1 X211.486 Y37.762 E9.55608
G1 X211.861 Y39.708 E9.64605
G1 X211.923 Y41.049 E9.707
G1 X211.818 Y42.499 E9.773
G1 X211.29 Y44.399 E9.86253
G1 X210.926 Y45.253 E9.90467
G1 X209.946 Y46.932 E9.99294
G1 X208.998 Y48.021 E10.05849
G1 X204.532 Y52.494 E10.34545
G1 X208.695 Y58.804 E10.68866
G1 X210.326 Y61.575 E10.83463
G1 X215.39 Y71.71 E11.349
G1 X219.253 Y81.981 E11.8472
G1 X221.959 Y92.211 E12.32761
G1 X223.732 Y103.585 E12.85023
G1 X224.278 Y114.638 E13.35265
G1 X223.723 Y125.344 E13.83936
G1 X223.574 Y126.709 E13.9017
G1 X222.222 Y135.264 E14.29491
G1 X221.951 Y136.562 E14.35511
G1 X219.138 Y147.125 E14.85139
G1 X215.395 Y157.024 E15.33186
G1 X210.289 Y167.223 E15.84968
G1 X208.587 Y170.097 E16.00132
G1 X204.525 Y176.237 E16.33556
G1 X209.088 Y180.813 E16.62895
G1 X210.127 Y182.05 E16.70229
G1 X211.011 Y183.618 E16.78401
G1 X211.607 Y185.272 E16.86383
G1 X211.914 Y187.08 E16.94709
G1 X211.908 Y188.854 E17.02763
G1 X211.587 Y190.623 E17.10925
G1 X211 Y192.237 E17.18722
G1 X210.068 Y193.852 E17.27188
G1 X209.071 Y195.019 E17.34156
G1 X197.991 Y206.083 E18.05244
G1 X196.862 Y206.983 E18.11799
G1 X195.646 Y207.734 E18.18288
G1 X193.834 Y208.41 E18.27068
G1 X192.578 Y208.702 E18.32923
G1 X190.815 Y208.79 E18.40937
G1 X189.376 Y208.688 E18.47486
G1 X187.879 Y208.292 E18.54516
G1 X186.124 Y207.536 E18.63192
G1 X184.902 Y206.786 E18.69701
G1 X183.846 Y205.865 E18.76063
G1 X179.374 Y201.395 E19.04769
G1 X170.214 Y207.229 E19.54074
G1 X160.156 Y212.258 E20.05127
G1 X149.833 Y216.137 E20.55193
G1 X139.658 Y218.826 E21.02974
G1 X128.28 Y220.6 E21.55254
G1 X117.229 Y221.146 E22.05487
G1 X106.716 Y220.6 E22.5328
G1 X95.341 Y218.826 E23.05547
G1 X84.742 Y216.001 E23.55346
G1 X74.841 Y212.258 E24.03402
G1 X64.787 Y207.229 E24.54439
G1 X55.623 Y201.401 E25.03744
G1 X51.044 Y205.968 E25.33106
G1 X49.907 Y206.933 E25.39876
G1 X48.283 Y207.87 E25.48388
G1 X46.641 Y208.462 E25.56313
G1 X44.833 Y208.781 E25.64648
G1 X43.01 Y208.775 E25.72924
G1 X41.255 Y208.453 E25.81025
G1 X39.622 Y207.864 E25.88906
G1 X38.013 Y206.933 E25.97346
G1 X36.884 Y205.973 E26.04074
G1 X25.813 Y194.89 E26.75194
G1 X24.963 Y193.84 E26.81328
G1 X24.154 Y192.557 E26.88214
G1 X23.516 Y190.983 E26.95924
G1 X23.139 Y189.028 E27.04964
G1 X23.077 Y187.687 E27.11058
G1 X23.178 Y186.294 E27.17399
G1 X23.683 Y184.428 E27.26176
G1 X24.207 Y183.157 E27.32417
G1 X25.255 Y181.579 E27.41017
G1 X26.026 Y180.689 E27.46363
G1 X30.474 Y176.24 E27.74925
G1 X26.263 Y169.861 E28.09627
G1 X24.652 Y167.121 E28.24057
G1 X19.609 Y157.023 E28.75301
G1 X15.747 Y146.754 E29.25111
G1 X13.041 Y136.524 E29.73152
G1 X11.267 Y125.167 E30.25339
G1 X10.722 Y114.07 E30.7578
G1 X11.268 Y103.583 E31.23455
G1 X13.041 Y92.208 E31.75721
G1 X15.867 Y81.605 E32.2554
G1 X19.609 Y71.71 E32.73568
G1 X24.655 Y61.618 E33.24794
G1 X26.425 Y58.612 E33.40631
G1 X30.468 Y52.492 E33.73932
G1 X25.908 Y47.918 E34.03254
G1 X24.877 Y46.689 E34.10537
G1 X24.001 Y45.15 E34.18577
G1 X23.404 Y43.505 E34.26522
G1 X23.086 Y41.691 E34.34883
G1 X23.092 Y39.879 E34.43109
G1 X23.42 Y38.091 E34.51362
G1 X24.001 Y36.508 E34.59018
G1 X24.936 Y34.885 E34.67522
G1 X25.891 Y33.756 E34.74235
G0 F4800 X26.308 Y34.109
G1 F1800 X37.318 Y23.103 E35.44913
G1 X38.123 Y22.429 E35.49679
G1 X39.641 Y21.478 E35.57812
G1 X41.232 Y20.879 E35.6553
G1 X42.498 Y20.575 E35.71441
G1 X44.143 Y20.49 E35.78919
G1 X45.535 Y20.589 E35.85255
G1 X47.164 Y21.031 E35.92918
G1 X48.44 Y21.551 E35.99173
G1 X49.932 Y22.538 E36.07295
G1 X50.848 Y23.333 E36.12802
G1 X55.238 Y27.725 E36.40994
G1 X55.48 Y27.913 E36.42386
G1 X55.638 Y27.935 E36.4311
G1 X55.782 Y27.889 E36.43796
G1 X63.834 Y22.679 E36.87337
G1 X71.498 Y18.6 E37.26753
G1 X72.269 Y18.237 E37.30622
G1 X79.825 Y15.029 E37.6789
G1 X81.095 Y14.556 E37.74043
G1 X82.089 Y14.391 E37.78617
G1 X152.887 Y14.391 E41.00041
G1 X154.047 Y14.599 E41.05391
G1 X162.919 Y18.325 E41.49078
G1 X163.707 Y18.703 E41.53046
G1 X171.163 Y22.677 E41.91404
G1 X179.197 Y27.877 E42.34852
G1 X179.418 Y27.939 E42.35894
G1 X179.641 Y27.846 E42.36991
G1 X184.343 Y23.154 E42.67148
G1 X185.412 Y22.249 E42.73507
G1 X186.94 Y21.368 E42.81515
G1 X188.508 Y20.802 E42.89083
G1 X190.216 Y20.5 E42.96958
G1 X191.939 Y20.506 E43.0478
G1 X193.601 Y20.811 E43.12452
G1 X195.147 Y21.369 E43.19914
G1 X196.669 Y22.249 E43.27896
G1 X197.761 Y23.177 E43.34402
G1 X208.807 Y34.238 E44.05371
G1 X209.628 Y35.262 E44.1133
G1 X210.344 Y36.413 E44.17484
G1 X210.96 Y37.917 E44.24863
G1 X211.316 Y39.735 E44.33273
G1 X211.378 Y41.01 E44.39069
G1 X211.277 Y42.409 E44.45437
G1 X210.787 Y44.187 E44.5381
G1 X210.454 Y44.978 E44.57706
G1 X209.501 Y46.611 E44.6629
G1 X208.586 Y47.662 E44.72617
G1 X204.139 Y52.109 E45.01169
G1 X203.957 Y52.348 E45.02533
G1 X203.932 Y52.494 E45.03205
G1 X203.986 Y52.659 E45.03993
G1 X208.224 Y59.081 E45.38926
G1 X209.855 Y61.852 E45.53523
G1 X214.879 Y71.902 E46.04534
G1 X218.725 Y82.121 E46.54105
G1 X221.431 Y92.351 E47.02147
G1 X223.187 Y103.612 E47.5389
G1 X223.733 Y114.61 E48.03882
G1 X223.18 Y125.285 E48.52412
G1 X223.031 Y126.65 E48.58646
G1 X221.688 Y135.152 E48.97724
G1 X221.423 Y136.421 E49.03609
G1 X218.61 Y146.984 E49.53237
G1 X214.884 Y156.831 E50.01035
G1 X209.819 Y166.945 E50.52389
G1 X208.117 Y169.819 E50.67554
G1 X203.987 Y176.061 E51.01534
G1 X203.931 Y176.313 E51.02706
G1 X204.028 Y176.513 E51.03715
G1 X208.701 Y181.199 E51.3376
G1 X209.675 Y182.36 E51.4064
G1 X210.513 Y183.846 E51.48385
G1 X211.078 Y185.415 E51.55956
G1 X211.368 Y187.123 E51.63822
G1 X211.362 Y188.805 E51.71458
G1 X211.058 Y190.479 E51.79182
G1 X210.503 Y192.005 E51.86554
G1 X209.618 Y193.539 E51.94595
G1 X208.685 Y194.633 E52.01122
G1 X197.649 Y205.657 E52.71941
G1 X196.575 Y206.518 E52.7819
G1 X195.402 Y207.242 E52.84448
G1 X193.71 Y207.878 E52.92655
G1 X192.499 Y208.16 E52.983
G1 X190.854 Y208.245 E53.05778
G1 X189.464 Y208.146 E53.12105
G1 X188.018 Y207.764 E53.18895
G1 X186.41 Y207.071 E53.26844
G1 X185.229 Y206.346 E53.33136
G1 X184.205 Y205.453 E53.39304
G1 X179.736 Y200.985 E53.67994
G1 X179.521 Y200.822 E53.69219
G1 X179.37 Y200.798 E53.69913
G1 X179.224 Y200.843 E53.70607
G1 X169.921 Y206.768 E54.20681
G1 X159.964 Y211.747 E54.71223
G1 X149.693 Y215.609 E55.21041
G1 X139.518 Y218.298 E55.68821
G1 X128.253 Y220.055 E56.20583
G1 X117.257 Y220.601 E56.70566
G1 X106.744 Y220.055 E57.1836
G1 X95.482 Y218.298 E57.70108
G1 X84.883 Y215.473 E58.19907
G1 X75.034 Y211.747 E58.67715
G1 X65.08 Y206.768 E59.18244
G1 X55.72 Y200.815 E59.68605
G1 X55.56 Y200.795 E59.69337
G1 X55.255 Y200.995 E59.70993
G1 X50.658 Y205.581 E60.00473
G1 X49.59 Y206.485 E60.06825
G1 X48.053 Y207.372 E60.14882
G1 X46.5 Y207.932 E60.22377
G1 X44.784 Y208.235 E60.30288
G1 X43.061 Y208.229 E60.38111
G1 X41.399 Y207.924 E60.45782
G1 X39.853 Y207.366 E60.53244
G1 X38.33 Y206.485 E60.61232
G1 X37.238 Y205.557 E60.67738
G1 X26.236 Y194.545 E61.38409
G1 X25.425 Y193.549 E61.4424
G1 X24.642 Y192.307 E61.50906
G1 X24.042 Y190.828 E61.58152
G1 X23.684 Y189.001 E61.66605
G1 X23.622 Y187.726 E61.724
G1 X23.719 Y186.383 E61.78513
G1 X24.188 Y184.636 E61.86725
G1 X24.691 Y183.416 E61.92716
G1 X25.668 Y181.937 E62.00764
G1 X26.439 Y181.047 E62.0611
G1 X30.97 Y176.517 E62.35198
G1 X31.069 Y176.314 E62.36223
G1 X31.016 Y176.069 E62.37361
G1 X26.734 Y169.584 E62.72643
G1 X25.123 Y166.844 E62.87073
G1 X20.12 Y156.831 E63.37891
G1 X16.275 Y146.614 E63.87452
G1 X13.569 Y136.384 E64.35494
G1 X11.812 Y125.14 E64.87161
G1 X11.267 Y114.098 E65.37353
G1 X11.813 Y103.611 E65.85028
G1 X13.569 Y92.349 E66.36776
G1 X16.395 Y81.746 E66.86594
G1 X20.12 Y71.903 E67.34374
G1 X25.125 Y61.895 E67.85176
G1 X26.881 Y58.913 E68.00887
G1 X31.024 Y52.642 E68.35009
G1 X31.067 Y52.511 E68.35635
G1 X31.044 Y52.345 E68.36396
G1 X30.874 Y52.124 E68.37662
G1 X26.295 Y47.532 E68.67103
G1 X25.329 Y46.378 E68.73936
G1 X24.497 Y44.916 E68.81573
G1 X23.934 Y43.366 E68.8906
G1 X23.632 Y41.644 E68.96997
G1 X23.638 Y39.929 E69.04783
G1 X23.948 Y38.238 E69.12588
G1 X24.498 Y36.739 E69.19837
G1 X25.384 Y35.201 E69.27896
G1 X26.308 Y34.109 E69.3439
G0 F4800 X26.725 Y34.462
G1 F1800 X37.669 Y23.522 E70.04644
G1 X38.474 Y22.848 E70.0941
G1 X39.887 Y21.969 E70.16965
G1 X41.36 Y21.41 E70.24118
G1 X42.579 Y21.117 E70.2981
G1 X44.104 Y21.035 E70.36743
G1 X45.446 Y21.13 E70.42851
G1 X46.958 Y21.537 E70.4996
G1 X48.186 Y22.037 E70.5598
G1 X49.575 Y22.951 E70.63529
G1 X50.462 Y23.719 E70.68855
G1 X54.881 Y28.14 E70.97234
G1 X55.219 Y28.402 E70.99176
G1 X55.46 Y28.481 E71.00327
G1 X55.724 Y28.481 E71.01526
G1 X56.017 Y28.387 E71.02923
G1 X64.091 Y23.161 E71.46587
G1 X71.731 Y19.094 E71.85881
G1 X72.482 Y18.74 E71.89651
G1 X80.015 Y15.541 E72.26806
G1 X81.235 Y15.087 E72.32716
G1 X82.137 Y14.937 E72.36868
G1 X152.84 Y14.937 E75.5786
G1 X153.892 Y15.126 E75.62712
G1 X162.683 Y18.817 E76.05999
G1 X163.45 Y19.185 E76.09861
G1 X170.906 Y23.159 E76.48219
G1 X178.971 Y28.381 E76.9184
G1 X179.386 Y28.497 E76.93796
G1 X179.653 Y28.454 E76.95024
G1 X179.967 Y28.292 E76.96628
G1 X184.696 Y23.571 E77.26965
G1 X185.728 Y22.697 E77.33105
G1 X187.17 Y21.866 E77.40661
G1 X188.649 Y21.332 E77.478
G1 X190.265 Y21.046 E77.5525
G1 X191.889 Y21.052 E77.62623
G1 X193.454 Y21.339 E77.69847
G1 X194.918 Y21.868 E77.76914
G1 X196.356 Y22.699 E77.84454
G1 X197.375 Y23.563 E77.9052
G1 X208.382 Y34.581 E78.61226
G1 X209.164 Y35.55 E78.66879
G1 X209.857 Y36.664 E78.72835
G1 X210.435 Y38.075 E78.79758
G1 X210.771 Y39.763 E78.87572
G1 X210.833 Y40.971 E78.93063
G1 X210.736 Y42.316 E78.99186
G1 X210.282 Y43.978 E79.07008
G1 X209.982 Y44.703 E79.1057
G1 X209.056 Y46.29 E79.18912
G1 X208.174 Y47.303 E79.2501
G1 X203.728 Y51.748 E79.53552
G1 X203.466 Y52.091 E79.55512
G1 X203.385 Y52.339 E79.56696
G1 X203.386 Y52.581 E79.57795
G1 X203.492 Y52.902 E79.5933
G1 X207.753 Y59.358 E79.94448
G1 X209.384 Y62.129 E80.09046
G1 X214.368 Y72.094 E80.5963
G1 X218.197 Y82.261 E81.08953
G1 X220.903 Y92.491 E81.56995
G1 X222.642 Y103.639 E82.08219
G1 X223.188 Y114.582 E82.57962
G1 X222.637 Y125.226 E83.06351
G1 X222.488 Y126.591 E83.12585
G1 X221.154 Y135.04 E83.51418
G1 X220.895 Y136.281 E83.57174
G1 X218.099 Y146.791 E84.06549
G1 X214.373 Y156.638 E84.54348
G1 X209.349 Y166.667 E85.05273
G1 X207.647 Y169.541 E85.20438
G1 X203.489 Y175.826 E85.54651
G1 X203.386 Y176.156 E85.5622
G1 X203.384 Y176.437 E85.57496
G1 X203.576 Y176.834 E85.59498
G1 X208.314 Y181.585 E85.89961
G1 X209.226 Y182.675 E85.96413
G1 X210.013 Y184.069 E86.03681
G1 X210.549 Y185.558 E86.10865
G1 X210.822 Y187.166 E86.1827
G1 X210.816 Y188.756 E86.25489
G1 X210.529 Y190.335 E86.32775
G1 X210.006 Y191.773 E86.39722
G1 X209.17 Y193.222 E86.47317
G1 X208.269 Y194.279 E86.53622
G1 X197.306 Y205.232 E87.23979
G1 X196.288 Y206.053 E87.29916
G1 X195.161 Y206.749 E87.3593
G1 X193.586 Y207.346 E87.43577
G1 X192.42 Y207.618 E87.49012
G1 X190.893 Y207.7 E87.55955
G1 X189.553 Y207.605 E87.62054
G1 X188.158 Y207.236 E87.68605
G1 X186.696 Y206.606 E87.75833
G1 X185.556 Y205.906 E87.81906
G1 X184.564 Y205.041 E87.87881
G1 X180.094 Y200.571 E88.16581
G1 X179.779 Y200.333 E88.18374
G1 X179.538 Y200.253 E88.19526
G1 X179.288 Y200.252 E88.20661
G1 X178.993 Y200.343 E88.22063
G1 X169.628 Y206.307 E88.7247
G1 X159.772 Y211.236 E89.225
G1 X149.553 Y215.081 E89.7207
G1 X139.378 Y217.77 E90.1985
G1 X128.226 Y219.51 E90.71093
G1 X117.285 Y220.056 E91.20827
G1 X106.772 Y219.51 E91.6862
G1 X95.622 Y217.77 E92.19854
G1 X85.076 Y214.962 E92.69401
G1 X75.227 Y211.236 E93.17209
G1 X65.373 Y206.307 E93.6723
G1 X56.001 Y200.34 E94.17671
G1 X55.86 Y200.282 E94.18364
G1 X55.509 Y200.239 E94.19969
G1 X55.229 Y200.328 E94.21303
G1 X54.89 Y200.587 E94.2324
G1 X50.272 Y205.194 E94.52854
G1 X49.277 Y206.035 E94.58769
G1 X47.823 Y206.874 E94.66391
G1 X46.359 Y207.402 E94.73456
G1 X44.735 Y207.689 E94.80943
G1 X43.111 Y207.683 E94.88316
G1 X41.546 Y207.396 E94.9554
G1 X40.082 Y206.867 E95.02607
G1 X38.643 Y206.035 E95.10154
G1 X37.624 Y205.171 E95.16219
G1 X26.658 Y194.199 E95.86646
G1 X25.887 Y193.258 E95.92169
G1 X25.13 Y192.057 E95.98614
G1 X24.567 Y190.67 E96.0541
G1 X24.229 Y188.973 E96.13266
G1 X24.167 Y187.765 E96.18757
G1 X24.26 Y186.474 E96.24634
G1 X24.693 Y184.844 E96.32291
G1 X25.176 Y183.671 E96.3805
G1 X26.081 Y182.295 E96.45527
G1 X26.852 Y181.405 E96.50873
G1 X31.422 Y176.837 E96.80208
G1 X31.616 Y176.44 E96.82214
G1 X31.614 Y176.145 E96.83554
G1 X31.511 Y175.827 E96.85071
G1 X27.205 Y169.307 E97.20545
G1 X25.594 Y166.567 E97.34976
G1 X20.631 Y156.639 E97.85367
G1 X16.803 Y146.474 E98.3468
G1 X14.097 Y136.244 E98.82722
G1 X12.357 Y125.113 E99.3387
G1 X11.812 Y114.126 E99.83813
G1 X12.358 Y103.639 E100.31488
G1 X14.097 Y92.49 E100.82717
G1 X16.923 Y81.887 E101.32535
G1 X20.631 Y72.096 E101.80067
G1 X25.595 Y62.172 E102.30444
G1 X27.337 Y59.214 E102.46029
G1 X31.52 Y52.883 E102.80479
G1 X31.613 Y52.6 E102.81832
G1 X31.614 Y52.332 E102.83048
G1 X31.532 Y52.084 E102.84234
G1 X31.284 Y51.761 E102.86083
G1 X26.682 Y47.146 E103.15672
G1 X25.778 Y46.063 E103.22077
G1 X24.994 Y44.687 E103.29267
G1 X24.464 Y43.227 E103.36318
G1 X24.178 Y41.597 E103.43832
G1 X24.184 Y39.979 E103.51177
G1 X24.476 Y38.385 E103.58535
G1 X24.995 Y36.97 E103.65377
G1 X25.832 Y35.517 E103.7299
G1 X26.725 Y34.462 E103.79265
G0 F4800 X27.142 Y34.815
G1 F1800 X38.02 Y23.941 E104.49095
G1 X38.825 Y23.267 E104.53862
G1 X40.128 Y22.461 E104.60818
G1 X41.488 Y21.941 E104.67428
G1 X42.66 Y21.659 E104.72901
G1 X44.066 Y21.58 E104.79294
G1 X45.355 Y21.671 E104.85161
G1 X46.752 Y22.043 E104.91724
G1 X47.931 Y22.523 E104.97503
G1 X49.218 Y23.364 E105.04483
G1 X50.076 Y24.105 E105.0963
G1 X54.519 Y28.55 E105.38163
G1 X54.96 Y28.892 E105.40697
G1 X55.373 Y29.027 E105.42669
G1 X55.81 Y29.027 E105.44653
G1 X56.252 Y28.885 E105.46761
G1 X64.348 Y23.643 E105.90549
G1 X71.964 Y19.588 E106.29721
G1 X72.695 Y19.243 E106.33391
G1 X80.206 Y16.053 E106.70439
G1 X81.377 Y15.617 E106.76112
G1 X82.184 Y15.483 E106.79826
G1 X152.794 Y15.483 E110.00396
G1 X153.737 Y15.652 E110.04745
G1 X162.447 Y19.31 E110.47635
G1 X163.193 Y19.667 E110.51389
G1 X170.649 Y23.641 E110.89747
G1 X178.736 Y28.879 E111.33491
G1 X179.216 Y29.032 E111.35778
G1 X179.408 Y29.046 E111.36652
G1 X179.825 Y28.979 E111.3857
G1 X180.207 Y28.783 E111.40519
G1 X180.479 Y28.552 E111.42139
G1 X185.049 Y23.988 E111.71462
G1 X186.044 Y23.145 E111.77382
G1 X187.4 Y22.364 E111.84487
G1 X188.79 Y21.862 E111.91196
